X: 1908
T: Sweet Belle Mahome
C:JH McNaughton (pub 1867)
B: australian traditional tunes wiki
M:4/4
L:1/8
R: Waltz
Q: 1/4=100
K:D
V:1 
"D"F4D2|"G"G4F2|"D"F4E2|"A7"A,6|E4F2|G4A2|""B4A2|"D" F6|
"D"F4D2|"G"G4F2|"D"F4E2|"Em"B,6|"A7"A,2C2D2|E4F2|"D"D6-|D2C2D2|
"A7"E4A,2|E2F2G2|"G"B4A2|"D"A6|"A7"E4F2|G4A2|"G"B6|"A7"A2B2c2|
"D"d4F2|"F#m"F2G2A2|"A7"c4B2|E2F2G2|"D"F6|"A7"E6|"D"D6-|D4z2||
% abcbook-tune_id 6342d53a8067968202039bb8


% abcbook-boost 0
% abcbook-tablature 
% abcbook-transpose 
% abcbook-lastupdated 1665324392155
% abcbook-soundfonts 
% abcbook-repeats 1
% NFF Book 2019
% Bush Traditions recording played by Ray Mulligan

